Obsidian/status/22s/pomodoro-start-light.svg

<svg height="22" width="22" xmlns="http://www.w3.org/2000/svg"><path d="m11 2c-2.1276 0-4.0845.73435-5.625 1.96875l-1.8125-1.8125-1.40625 1.40625 1.8125 1.8125c-1.2344 1.5405-1.96875 3.4974-1.96875 5.625 0 4.971 4.0294 9 9 9 4.971 0 9-4.029 9-9 0-2.1276-.73375-4.0845-1.96875-5.625l1.8125-1.8125-1.40625-1.40625-1.8125 1.8125c-1.541-1.2344-3.497-1.96875-5.625-1.96875zm0 2c3.866 0 7 3.134 7 7s-3.134 7-7 7-7-3.134-7-7 3.134-7 7-7zm-2 3v8l6-4z" fill="#d3dae3"/></svg>

<svg xmlns="http://www.w3.org/2000/svg" width="22" height="22" version="1.1">
 <defs>
  <style id="current-color-scheme" type="text/css">
   .ColorScheme-Text { color:#d3dae3; } .ColorScheme-Highlight { color:#5294e2; }
  </style>
 </defs>
 <path style="fill:currentColor" class="ColorScheme-Text" d="M 11 2 C 8.8724 2 6.9155 2.73435 5.375 3.96875 L 3.5625 2.15625 L 2.15625 3.5625 L 3.96875 5.375 C 2.73435 6.9155 2 8.8724 2 11 C 2 15.971 6.0294 20 11 20 C 15.971 20 20 15.971 20 11 C 20 8.8724 19.26625 6.9155 18.03125 5.375 L 19.84375 3.5625 L 18.4375 2.15625 L 16.625 3.96875 C 15.084 2.73435 13.128 2 11 2 z M 11 4 C 14.866 4 18 7.134 18 11 C 18 14.866 14.866 18 11 18 C 7.134 18 4 14.866 4 11 C 4 7.134 7.134 4 11 4 z M 9 7 L 9 15 L 15 11 L 9 7 z"/>
</svg>
